X: 42625
T: Whirl-Y-Reel 1
R: reel
M: 4/4
K: Aminor
|:A2 GA GFDD|[AC]DDD FDDD|A2 GA GFDD|AcBG A4|
A2 GA GFDD|[AC]DDD FDDD|A/B/cBG AFDD|DFEC D4:|
|:G3 G F3 F|G3 G F3 F|A/B/cBG AFDD|DFEC [A,D]F[A,D]F|
G3 G F3 F|G3 G F3 F|A/B/cBG AFDD|DFEC [D4A,4]:|

